build-source/logos/jimmy.default.svg

<svg width="625" height="273.75" viewBox="0 0 500 219" xmlns="http://www.w3.org/2000/svg"><path d="m0 0h40.79c.04 13.61.001 27.23.02 40.84-13.6-.001-27.21.03-40.81-.02v-40.82"/><path d="m50.83 0h40.96c.02 13.62.02 27.25 0 40.87-13.65-.08-27.31.03-40.96-.06 0-13.6-.001-27.21 0-40.81"/><path d="m0 50.87c13.59-.02 27.18 0 40.77-.001.09 55.69.001 111.39.04 167.09-13.61-.02-27.21.02-40.81-.03v-167.05"/><path d="m50.73 51.31c1.39-.3 2.8-.54 4.22-.48 12.27.07 24.54.001 36.8.03.12 41.78.03 83.56.04 125.35-13.65-.03-27.3 0-40.95-.02-.09-41.63.12-83.26-.11-124.88"/><path d="m102.26 51.09c13.39-.59 26.9.03 40.33-.31.38 41.79.02 83.59.18 125.38-13.53.09-27.06 0-40.59.05 0-41.71-.15-83.42.08-125.12"/><path d="m153.19 63.92c.05-4.38-.16-8.76.17-13.13 13.46.18 26.93.001 40.4.09.09 41.77.04 83.55.03 125.32-13.53-.001-27.06-.001-40.58 0-.05-37.43-.001-74.86-.02-112.28"/><path d="m204.17 50.85c13.55.02 27.11.02 40.66 0 .05 41.8.22 83.57.02 125.35-13.57-.001-27.13-.001-40.7 0-.04-41.78-.09-83.56.02-125.35"/><path d="m255.18 50.85c13.55.02 27.1.02 40.65 0 .1 41.79.06 83.57.02 125.35-13.54-.001-27.09-.001-40.63.001-.06-.8-.19-2.4-.25-3.2-.02-20.32.22-40.67.1-61.01.08-16 .09-32-.001-48 .11-4.38 0-8.77.12-13.15"/><path d="m306.23 50.88c13.51-.04 27.02 0 40.54-.02.09 41.78.03 83.56.02 125.34-13.52-.001-27.04 0-40.57 0-.04-41.77-.05-83.55.001-125.32"/><path d="m357.24 56.99c-.02-2.07.02-4.14.17-6.2 12.54.17 25.08.03 37.61.06 1.11.05 2.2.25 3.27.6-.3 29.19-.03 58.35-.13 87.54-.15 10.66.45 21.39-.31 32.02.23 1.64 1.19 4.08-.6 5.15-13.29.14-26.59-.09-39.88.11-.29-39.75-.02-79.52-.13-119.28"/><path d="m408.25 50.85c10.9.03 21.8.001 32.69.001 2.78.06 5.63-.33 8.34.52-.25 41.6-.02 83.2-.12 124.8-13.64.04-27.29-.001-40.94.03-.03-41.79-.08-83.58.03-125.36"/><path d="m459.23 50.86c13.59.18 27.2-.34 40.77.26v166.81c-13.6.04-27.2 0-40.81.02.03-55.7-.05-111.4.04-167.09"/></svg>

<?xml version="1.0" encoding="UTF-8" ?>
<!DOCTYPE svg PUBLIC "-//W3C//DTD SVG 1.1//EN" "http://www.w3.org/Graphics/SVG/1.1/DTD/svg11.dtd">
<svg width="500pt" height="219pt" viewBox="0 0 500 219" version="1.1" xmlns="http://www.w3.org/2000/svg">
<g id="#000000ff">
<path fill="#000000" opacity="1.00" d=" M 0.00 0.00 L 40.79 0.00 C 40.83 13.61 40.80 27.23 40.81 40.84 C 27.21 40.83 13.60 40.87 0.00 40.82 L 0.00 0.00 Z" />
<path fill="#000000" opacity="1.00" d=" M 50.83 0.00 L 91.79 0.00 C 91.81 13.62 91.81 27.25 91.79 40.87 C 78.14 40.79 64.48 40.90 50.83 40.81 C 50.83 27.21 50.82 13.60 50.83 0.00 Z" />
<path fill="#000000" opacity="1.00" d=" M 0.00 50.87 C 13.59 50.85 27.18 50.87 40.77 50.86 C 40.86 106.55 40.78 162.25 40.81 217.95 C 27.20 217.93 13.60 217.97 0.00 217.92 L 0.00 50.87 Z" />
<path fill="#000000" opacity="1.00" d=" M 50.73 51.31 C 52.12 51.01 53.53 50.77 54.95 50.83 C 67.22 50.90 79.49 50.84 91.75 50.86 C 91.87 92.64 91.78 134.42 91.79 176.21 C 78.14 176.18 64.49 176.21 50.84 176.19 C 50.75 134.56 50.96 92.93 50.73 51.31 Z" />
<path fill="#000000" opacity="1.00" d=" M 102.26 51.09 C 115.65 50.50 129.16 51.12 142.59 50.78 C 142.97 92.57 142.61 134.37 142.77 176.16 C 129.24 176.25 115.71 176.16 102.18 176.21 C 102.18 134.50 102.03 92.79 102.26 51.09 Z" />
<path fill="#000000" opacity="1.00" d=" M 153.19 63.92 C 153.24 59.54 153.03 55.16 153.36 50.79 C 166.82 50.97 180.29 50.80 193.76 50.88 C 193.85 92.65 193.80 134.43 193.79 176.20 C 180.26 176.19 166.73 176.19 153.21 176.20 C 153.16 138.77 153.20 101.34 153.19 63.92 Z" />
<path fill="#000000" opacity="1.00" d=" M 204.17 50.85 C 217.72 50.87 231.28 50.87 244.83 50.85 C 244.88 92.65 245.05 134.42 244.85 176.20 C 231.28 176.19 217.72 176.19 204.15 176.20 C 204.11 134.42 204.06 92.64 204.17 50.85 Z" />
<path fill="#000000" opacity="1.00" d=" M 255.18 50.85 C 268.73 50.87 282.28 50.87 295.83 50.85 C 295.93 92.64 295.89 134.42 295.85 176.20 C 282.31 176.19 268.76 176.19 255.22 176.21 C 255.16 175.41 255.03 173.81 254.97 173.01 C 254.95 152.69 255.19 132.34 255.07 112.00 C 255.15 96.00 255.16 80.00 255.06 64.00 C 255.17 59.62 255.06 55.23 255.18 50.85 Z" />
<path fill="#000000" opacity="1.00" d=" M 306.23 50.88 C 319.74 50.84 333.25 50.88 346.77 50.86 C 346.86 92.64 346.80 134.42 346.79 176.20 C 333.27 176.19 319.75 176.20 306.22 176.20 C 306.18 134.43 306.17 92.65 306.23 50.88 Z" />
<path fill="#000000" opacity="1.00" d=" M 357.24 56.99 C 357.22 54.92 357.26 52.85 357.41 50.79 C 369.95 50.96 382.49 50.82 395.02 50.85 C 396.13 50.90 397.22 51.10 398.29 51.45 C 397.99 80.64 398.26 109.80 398.16 138.99 C 398.01 149.65 398.61 160.38 397.85 171.01 C 398.08 172.65 399.04 175.09 397.25 176.16 C 383.96 176.30 370.66 176.07 357.37 176.27 C 357.08 136.52 357.35 96.75 357.24 56.99 Z" />
<path fill="#000000" opacity="1.00" d=" M 408.25 50.85 C 419.15 50.88 430.05 50.86 440.94 50.86 C 443.72 50.92 446.57 50.53 449.28 51.38 C 449.03 92.98 449.26 134.58 449.16 176.18 C 435.52 176.22 421.87 176.17 408.22 176.21 C 408.19 134.42 408.14 92.63 408.25 50.85 Z" />
<path fill="#000000" opacity="1.00" d=" M 459.23 50.86 C 472.82 51.04 486.43 50.52 500.00 51.12 L 500.00 217.93 C 486.40 217.97 472.80 217.93 459.19 217.95 C 459.22 162.25 459.14 106.55 459.23 50.86 Z" />
</g>
<g id="#ffffffff">
</g>
</svg>
